X:1
T:165 - Oração
T:Letra: Raphael Camacho Pages (1900-1969)
T:Música: Melodia alemã de BRÜDERGEMEINE (1740)
M:4/4
L:1/4
Q:1/4=100
K:Ab
V:1
"Ab"ABce | "Db"dc"Eb"BHB | "Ab"cB"Fm"AB | "Ab"A"Eb"G"Ab"HA2 | "Ab"ABce | "Db"dc"Eb"BHB | "Ab"cB"Fm"AB | "Ab"A"Eb"G"Ab"HA2 | "Eb"GAB"Bb7"B | "Eb"B (A/G/) "Bb"FHF | "Eb"GAB"Ab"c | "Db"dc"Eb"HB2 | "Ab"ABce | "Db"dc"Eb"BHB | "Ab"cB"Fm"AB | "Ab"A"Eb"G"Ab"HA2 |]
w: 1.~Pai ce-les-te, Deus ben-di-to, Ma-nis-fes-ta teu a-mor! A teus pés eis-nos pros-tra-dos, Im-plo-ran-do teu fa-vor! Aos que ja-zem no pe_ca-do, Mos-traa luz da sal-va-ção. Vem bri-lhar em nos-sas al-mas, Tu, ó Sol da re-ti-dão!
w: 2.~Nes-ta vi-da tão pe-no-sa, Vem, Se-nhor, nos con-so-lar; Aos a-fli-tos e can-sa-dos, Mos-tra seu a-mor sem par! Nas fra-que-zas dá con_for-to, Au-men-tan-do nos-sa fé, E fir-man-do, com bon-da-de, So-brea ro-cha nos-so pé!  
w: 3.~Nos-sas cul-pas e de-li-tos Tu nos po-des per-do-ar! Vem gui-ar-nos no ca-mi-nho Que con-duz ao san-to lar! Por Je-sus, teu Fi-lhoa_ma-do, Nos-soe-ter-no Su-mo bem, Tu-do nós Te su-pli-ca-mos, Gló-riaa Ti, Se-nhor, A-mém!
W: 
W: 
W: 1. Pai celeste, Deus bendito,
W: Manisfesta teu amor!
W: A teus pés eis-nos prostrados,
W: Implorando teu favor!
W: Aos que jazem no pecado,
W: Mostra a luz da salvação.
W: Vem brilhar em nossas almas,
W: Tu, ó Sol da retidão!
W: 
W: 2. Nesta vida tão penosa,
W: Vem, Senhor, nos consolar;
W: Aos aflitos e cansados,
W: Mostra seu amor sem par!
W: Nas fraquezas dá conforto,
W: Aumentando nossa fé,
W: E firmando, com bondade,
W: Sobre a rocha nosso pé!
W: 
W: 
W: 
W: 3. Nossas culpas e delitos
W: Tu nos podes perdoar!
W: Vem guiar-nos no caminho
W: Que conduz ao santo lar!
W: Por Jesus, teu Filho amado,
W: Nosso eterno Sumo bem,
W: Tudo nós Te suplicamos,
W: Glória a Ti, Senhor, Amém!
W:         
W: 





